v/0.4.11/design-resources/icons/wf_icons/drawer2.svg

<?xml version="1.0" encoding="utf-8"?>
<!-- Generated by IcoMoon.io -->
<!DOCTYPE svg PUBLIC "-//W3C//DTD SVG 1.1//EN" "http://www.w3.org/Graphics/SVG/1.1/DTD/svg11.dtd">
<svg version="1.1" xmlns="http://www.w3.org/2000/svg" xmlns:xlink="http://www.w3.org/1999/xlink" width="512" height="512" viewBox="0 0 512 512">
<g>
</g>
	<path d="M352 96h-192l-160 192v128c0 17.673 14.327 32 32 32h448c17.674 0 32-14.327 32-32v-128l-160-192zM320 352h-128l-32-32h192l-32 32zM41.655 288l133.333-160h162.024l133.333 160h-428.69zM142.482 192h227.036l-26.667-32h-173.703zM89.149 256h333.703l-26.667-32h-280.37z" fill="#595959" />
</svg>

<svg xmlns="http://www.w3.org/2000/svg" width="512" height="512" viewBox="0 0 512 512"><path d="M352 96H160L0 288v128c0 17.673 14.327 32 32 32h448c17.674 0 32-14.327 32-32V288L352 96zm-32 256H192l-32-32h192l-32 32zM41.655 288l133.333-160h162.024l133.333 160H41.655zm100.827-96h227.036l-26.667-32h-173.7zM89.15 256h333.7l-26.667-32h-280.37z" fill="#595959"/></svg>
